X:1
T:Title
%%score { ( 1 4 ) | ( 2 3 ) }
L:1/8
Q:1/4=110
M:4/4
K:F
V:1 treble nm="Grand Piano"
V:4 treble 
V:2 bass 
V:3 bass 
V:1
 [Fc]4 [Ac]2 [Ac]2 | A3 G F4 | d4 d2 d2 | [FAc]3 [GB] [CFA]4 | [FA]4 [FA]2 [Fd]2 | f4 z4 | %6
w: Robert~Lowry * *||||||
 d4 [E^c]2 [Gc]2 | [Fd]6 z2 | [GB]4 [Ec]2 [GB]2 | [GB]3 [FA] [FA]2 [GA]2 | [Ff]4 [Ge]2 [Ad]2 | %11
w: |||||
 [Ge]3 A A4 | B4 z4 | [CEc]4 [A,F]2 [DGB]2 | [CFA]4 [B,EG]3 [A,F] | [A,F]6 z2 |] %16
w: |||||
V:2
 [F,A,]4 [F,C]2 [F,F]2 | [F,CF]3 [F,B,E] [F,A,]4 | [B,F]4 [B,DB]2 [B,FB]2 | z2 z C F,4 | %4
 [D,D]4 [D,D]2 [D,A,]2 | [D,D]3 [E,^C] [F,D]2[K:treble] [G,B,G]2 | %6
 [A,F]4[K:bass] [A,,A,]2 [A,,A,]2 | [D,A,]6 z2 | [E,C]4 [C,C]2 [E,C]2 | [F,C]4 [F,C]2 [E,^C]2 | %10
 [D,D]4 [E,^C]2 [F,D]2 | z2 z F [A,^CE]4 | [G,D]2 z2[K:bass] z4 | A,,4 D,2 B,,2 | C,4 C,3 F,, | %15
 F,,6 z2 |] %16
V:3
 x8 | x8 | x8 | F,4 z4 | x8 | x6[K:treble] x2 | x4[K:bass] x4 | x8 | x8 | x8 | x8 | [A,^C]4 z4 | %12
 G2- [E,G]2[K:bass] C,2 B,,2 | x8 | x8 | x8 |] %16
V:4
 x8 | x8 | x8 | x8 | x8 | A3- [Ae] [Ad]2 e2 | x8 | x8 | x8 | x8 | x8 | x8 | z2 C2 [CFA]2 [CEG]2 | %13
 x8 | x8 | x8 |] %16

